X:593
T: ACH SCHAETZCHEN WAS HAB ICH DIR ZU LEIDE GETHAN
N: E0554
O: Europa, Mitteleuropa, Deutschland, Hessen, Darmstadt
R: Liebes - Lied, Vertroestung
M: 4/4
L: 1/8
K: F
C2 | F2FFF2FG | A2A2A2
FA | c3ABdcB | A4z2
FA | c2ccc2dc | cBB2B2
cB | A2AAAcBA | AGGGG2
cB | A2A2G2G2 | F4z2

@@@ Tune index: 4243
